X:105
%%etbk:tnset id:37,pos:2,rep:3x,ant:
%%etbk:wsite http://www.thesession.org/tunes/display/718
%%etbk:skill ?
%%etbk:pldat 2013-09-27T16:52,2013-05-01T16:28
T: George White's Favorite
Z: Piano Box Version by Martin Fleischmann
H: Created 2013-02-19 /  Last Modified 2013-02-19
M: 4/4
L: 1/8
R: reel
K: Gmaj
|: "em"!5!e!2!B!1!B!1!B !5!e!2!B!4!dB | "D"!1!A!3!G!4!AB !3!G!2!E!1!D!2!E | "G"!1!G!2!B!1!B!2!B !4!d!2!B!1!B!2!B | !5!eBdB "D"!1!A2Bd |
"em"!5!e!2!B!1!B!1!B !5!e!2!B!4!dB | "D"!1!A!3!G!4!AB !3!G!2!E!1!D!2!E | "G"!1!G2!2!B!3!d !5!g!4!e!3!d!2!B | "D"!1!A!1!GAB "G"G4 :||
|: "G"!3!gede !3!gaba | !3!g!2!g!3!ga !3!ge!1!d!2!B | !1!de!3!ga !5!bgag | "D"!1!e!4!aag aaga |
"G"!5!b!3!g!2!eg !1!d2de | !3!gede !3!gaba | !3!g{a}!3!g!3!gd !2!e!4!g!1!d!3!B | "D"!2!AGAB "G"!1!G4 :||
